X:1
T:Title
%%score [ ( 1 2 ) ( 3 4 ) ]
L:1/8
Q:1/4=240
M:4/4
K:D
V:1 treble nm="Midi_74"
V:2 treble 
V:3 bass nm="Midi_74"
V:4 bass 
V:1
 d8 | A4 B4 | A8 || G8 | F4 G4 | F4 E4 |"^Henry Smart\n(1813-79)" D8 |] %7
V:2
 F8 | A4 G4 | E8 || E8 | D4 E4 | D4 C4 | D8 |] %7
V:3
 A,8 | D4 D4 | C8 || B,8 | B,4 B,4 | A,4 G,4 | F,8 |] %7
V:4
 D,8 | F,4 G,4 | A,8 || E,8 | B,,4 G,,4 | A,,4 A,,4 | D,8 |] %7

